32x32/actions/document-open-remote.svg

<svg xmlns="http://www.w3.org/2000/svg" viewBox="0 0 32 32"><path style="fill:currentColor;fill-opacity:1;stroke:none;color:#555e70" d="M4 4v19h1v-9h5l3-3h14v12h1V7H18l-3-3H4zm8 19v2H4v1h8v2h8v-2h8v-1h-8v-2h-8zm4 1a1.5 1.5 0 0 1 1.5 1.5A1.5 1.5 0 0 1 16 27a1.5 1.5 0 0 1-1.5-1.5A1.5 1.5 0 0 1 16 24z"/></svg>

<svg xmlns="http://www.w3.org/2000/svg" viewBox="0 0 32 32">
  <defs
     id="defs3051">
    <style
       type="text/css"
       id="current-color-scheme">
      .ColorScheme-Text {
        color:#555e70;
      }
      </style>
  </defs>
  <path
     style="fill:currentColor;fill-opacity:1;stroke:none" 
     d="M 4 4 L 4 23 L 5 23 L 5 14 L 10 14 L 13 11 L 27 11 L 27 23 L 28 23 L 28 7 L 18 7 L 15 4 L 4 4 z M 12 23 L 12 25 L 4 25 L 4 26 L 12 26 L 12 28 L 20 28 L 20 26 L 28 26 L 28 25 L 20 25 L 20 23 L 12 23 z M 16 24 A 1.5 1.5 0 0 1 17.5 25.5 A 1.5 1.5 0 0 1 16 27 A 1.5 1.5 0 0 1 14.5 25.5 A 1.5 1.5 0 0 1 16 24 z "
     id="path74" 
     class="ColorScheme-Text"
     />
</svg>
